images/instagram.svg

<svg width="42" height="42" viewBox="0 0 42 42" fill="none" xmlns="http://www.w3.org/2000/svg">
<rect width="42" height="42" fill="#F9EFCF"/>
<path d="M21.0034 36.8217C16.6984 36.8217 16.1909 36.7989 14.5109 36.7254C13.2008 36.6824 11.9077 36.416 10.6872 35.9379C9.64273 35.5315 8.69423 34.9123 7.9019 34.1196C7.10957 33.327 6.49073 32.3783 6.08467 31.3337C5.62495 30.1087 5.377 28.8145 5.35142 27.5064C5.25342 25.8299 5.25342 25.2804 5.25342 21.0087C5.25342 16.6914 5.27617 16.1874 5.35142 14.5162C5.37756 13.2098 5.6255 11.9174 6.08467 10.6942C6.49026 9.64826 7.10952 8.69843 7.90291 7.90535C8.69629 7.11226 9.64635 6.49336 10.6924 6.08817C11.915 5.62652 13.2078 5.37792 14.5144 5.35317C16.1857 5.25867 16.7352 5.25867 21.0034 5.25867C25.3434 5.25867 25.8422 5.28142 27.4959 5.35317C28.8049 5.37767 30.1034 5.62617 31.3284 6.08817C32.3742 6.49383 33.324 7.1129 34.1174 7.90592C34.9107 8.69894 35.5301 9.64853 35.9362 10.6942C36.4034 11.9367 36.6537 13.2492 36.6729 14.5739C36.7709 16.2504 36.7709 16.7982 36.7709 21.0682C36.7709 25.3382 36.7464 25.8982 36.6729 27.5554C36.6468 28.8648 36.3982 30.1601 35.9379 31.3862C35.5308 32.4315 34.9108 33.3807 34.1173 34.1737C33.3238 34.9666 32.374 35.5859 31.3284 35.9922C30.1034 36.4507 28.8102 36.6992 27.5029 36.7254C25.8317 36.8217 25.2839 36.8217 21.0034 36.8217ZM20.9439 8.02892C16.6634 8.02892 16.2189 8.04992 14.5477 8.12517C13.5496 8.13822 12.5611 8.3223 11.6252 8.66942C10.9425 8.93107 10.3223 9.33286 9.8045 9.84888C9.28666 10.3649 8.88271 10.9837 8.61867 11.6654C8.26867 12.6104 8.08492 13.6097 8.07442 14.6177C7.98167 16.3134 7.98167 16.7579 7.98167 21.0087C7.98167 25.2087 7.99742 25.7179 8.07442 27.4032C8.09017 28.4007 8.27392 29.3894 8.61867 30.3257C9.15417 31.7029 10.2462 32.7914 11.6269 33.3199C12.5616 33.6692 13.5499 33.8534 14.5477 33.8642C16.2417 33.9622 16.6879 33.9622 20.9439 33.9622C25.2367 33.9622 25.6812 33.9412 27.3384 33.8642C28.3366 33.8521 29.3253 33.668 30.2609 33.3199C30.9399 33.0563 31.5566 32.6542 32.0718 32.1393C32.587 31.6244 32.9894 31.008 33.2534 30.3292C33.6034 29.3842 33.7872 28.3832 33.7977 27.3752H33.8169C33.8922 25.7022 33.8922 25.2559 33.8922 20.9807C33.8922 16.7054 33.8729 16.2557 33.7977 14.5844C33.7818 13.5877 33.5978 12.6008 33.2534 11.6654C32.99 10.9856 32.5878 10.3681 32.0726 9.85233C31.5574 9.33651 30.9404 8.93365 30.2609 8.66942C29.3247 8.31942 28.3359 8.13742 27.3384 8.12517C25.6462 8.02892 25.2034 8.02892 20.9439 8.02892ZM21.0034 29.0919C19.4032 29.093 17.8386 28.6194 16.5075 27.7311C15.1764 26.8429 14.1386 25.5798 13.5254 24.1017C12.9122 22.6236 12.7512 20.9969 13.0626 19.4272C13.374 17.8575 14.144 16.4155 15.275 15.2835C16.4061 14.1514 17.8475 13.3803 19.4168 13.0675C20.9862 12.7547 22.6131 12.9143 24.0917 13.5262C25.5704 14.1382 26.8343 15.1748 27.7237 16.5051C28.6132 17.8355 29.0881 19.3997 29.0884 20.9999C29.0856 23.144 28.2332 25.1995 26.7177 26.7163C25.2023 28.233 23.1475 29.0873 21.0034 29.0919ZM21.0034 15.7464C19.9651 15.7464 18.95 16.0543 18.0867 16.6312C17.2233 17.2081 16.5504 18.028 16.153 18.9873C15.7557 19.9466 15.6517 21.0022 15.8543 22.0206C16.0569 23.039 16.5569 23.9745 17.2911 24.7087C18.0253 25.443 18.9608 25.943 19.9792 26.1455C20.9976 26.3481 22.0532 26.2441 23.0125 25.8468C23.9718 25.4494 24.7918 24.7765 25.3686 23.9132C25.9455 23.0498 26.2534 22.0348 26.2534 20.9964C26.2502 19.605 25.696 18.2715 24.7122 17.2877C23.7283 16.3038 22.3948 15.7497 21.0034 15.7464ZM29.4034 14.4987C29.1557 14.4977 28.9105 14.448 28.682 14.3524C28.4535 14.2567 28.246 14.117 28.0715 13.9412C27.719 13.5861 27.5221 13.1055 27.5239 12.6052C27.5258 12.1048 27.7263 11.6257 28.0814 11.2733C28.4365 10.9208 28.9171 10.7238 29.4174 10.7257C29.9177 10.7275 30.3968 10.9281 30.7493 11.2832C31.1018 11.6383 31.2988 12.1188 31.2969 12.6192C31.2951 13.1195 31.0945 13.5986 30.7394 13.9511C30.3843 14.3035 29.9037 14.5005 29.4034 14.4987Z" fill="#F38281"/>
</svg>

<svg width="42" height="42" fill="none" xmlns="http://www.w3.org/2000/svg"><path fill="#F9EFCF" d="M0 0h42v42H0z"/><path d="M21.003 36.822c-4.305 0-4.812-.023-6.492-.097a11.52 11.52 0 0 1-3.824-.787 8.081 8.081 0 0 1-4.602-4.604 11.535 11.535 0 0 1-.734-3.828c-.098-1.676-.098-2.226-.098-6.497 0-4.318.023-4.822.098-6.493.027-1.306.274-2.599.734-3.822a8.067 8.067 0 0 1 4.607-4.606 11.433 11.433 0 0 1 3.822-.735c1.672-.094 2.221-.094 6.49-.094 4.34 0 4.838.022 6.492.094 1.309.025 2.607.273 3.832.735a8.077 8.077 0 0 1 4.608 4.606c.467 1.243.718 2.555.737 3.88.098 1.676.098 2.224.098 6.494s-.025 4.83-.098 6.487a11.554 11.554 0 0 1-.735 3.831 8.093 8.093 0 0 1-4.61 4.606 11.575 11.575 0 0 1-3.825.733c-1.671.097-2.22.097-6.5.097Zm-.06-28.793c-4.28 0-4.724.02-6.395.096a8.732 8.732 0 0 0-2.923.544 5.232 5.232 0 0 0-3.006 2.996 8.765 8.765 0 0 0-.545 2.953c-.092 1.695-.092 2.14-.092 6.39 0 4.2.015 4.71.092 6.395.016.998.2 1.986.545 2.923a5.238 5.238 0 0 0 3.008 2.994 8.61 8.61 0 0 0 2.92.544c1.695.098 2.14.098 6.397.098 4.293 0 4.737-.02 6.394-.098a8.683 8.683 0 0 0 2.923-.544 5.25 5.25 0 0 0 2.992-2.99c.35-.946.534-1.947.545-2.955h.019c.075-1.673.075-2.12.075-6.394 0-4.276-.02-4.725-.094-6.397a8.857 8.857 0 0 0-.545-2.919 5.25 5.25 0 0 0-2.992-2.996 8.646 8.646 0 0 0-2.923-.544c-1.692-.096-2.135-.096-6.394-.096Zm.06 21.063A8.09 8.09 0 1 1 29.088 21a8.102 8.102 0 0 1-8.085 8.092Zm0-13.346a5.25 5.25 0 1 0 5.25 5.25 5.262 5.262 0 0 0-5.25-5.25Zm8.4-1.247a1.89 1.89 0 0 1-1.88-1.894 1.886 1.886 0 1 1 1.88 1.894Z" fill="#F38281"/></svg>
